X:25
T:Kerfunten/ Have a Drink/ Scotsman/ Eddie Kelly's
C:A Jock Walton Set
T:(last tune is either Scotsman or Eddie Kelly's)
T:Kerfunten, The
M: 6/8
L: 1/8
K: Dmaj
BBB BAG|Bcd efg|ddd edB|A3 AGA|
BBB BAG|Bcd efg|ddd edB|ABA G3:|
|:ggg gab|eee ede|ggg gab|bag a3|
ggg gab|eee ede|ddd gdB |ABA G3:|
T:Have a Drink with me
K:G
||:d/c/|BAG EGD|EGD EGD|BAG EGD|EAA ABc|
BAG EGD|EGD EGD|BAG E2D|EGG G2:|
|:D|GBd e2d|dgd B2 A|GBd e2d|eaa aga|
bag agf|gfe dBG|BAG EGD|EGG G2:||
T:Scotsman over the Border
K:D
||:D2D FDF|AFA d2A|BdB BAB|def edB|
AD2 FDF|AFA d2A|BdB BAF|dAF E2D:||:
|:dfa afa|bag fge|dfa afe|def edB|
dfa afa|bag fed|B3 AFA|dAF E2D:||
T:Eddie Kelly's
M:6/8
L:1/8
R:jig
K:Em
||:BEF G2A|Bee edc|B3 GAB|AFD AFD|
BEF G2A|Bee edc|B3 GAB|AFD E3:|
|:gfe fed|Bee Bee|gfe fed|B^cd e2f|
gfe fed|Bee Bee|gfe fed|1B^cd e2f:|2B^cd ed=c||

